X:2
T:Bouree Tournant
M:3/4
L:1/8
R:bourree
Z:robin.beech@mcgill.ca
K:G
D2E D2E | DGA B3 | AGA GFE |1 DED B2G :|2 DBA G2B/c/
|: dBd BGB/c/ | dBB B2A/B/ | cAA A2G/A/ |1 BGG G2 B/c/ :|2  BGG GFE  |]
